public/img/step-6.svg

<svg width="62" height="62" viewBox="0 0 62 62" fill="none" xmlns="http://www.w3.org/2000/svg">
<g clip-path="url(#clip0)">
<path d="M56.4529 49.6995L53.9501 48.8306C55.3512 47.7209 56.2523 46.0066 56.2523 44.0847V42.2504C56.2523 38.9127 53.5367 36.1971 50.199 36.1971C46.8614 36.1971 44.1458 38.9127 44.1458 42.2504V44.0847C44.1458 46.0066 45.0473 47.7209 46.4484 48.8306L43.9452 49.6995C42.3398 50.2572 40.9902 51.2799 40.0238 52.584H33.2625V49.9157C33.2625 46.4035 31.0331 43.2697 27.7153 42.1179L25.2121 41.249C26.6132 40.1393 27.5148 38.425 27.5148 36.5031V34.6687C27.5148 31.3306 24.7991 28.6155 21.4615 28.6155C18.1239 28.6155 15.4082 31.3311 15.4082 34.6687V36.5031C15.4082 38.425 16.3098 40.1393 17.7104 41.249L15.2077 42.1179C11.8899 43.2697 9.66054 46.4035 9.66054 49.9157V52.584H0.917191C0.410583 52.584 0 52.9946 0 53.5012V61.0828C0 61.5894 0.410583 62 0.917191 62H39.0712C39.1123 62 39.153 61.9962 39.1932 61.991C39.2334 61.9962 39.2741 62 39.3157 62H61.0828C61.5894 62 62 61.5894 62 61.0828V57.4973C62 53.9856 59.7711 50.8518 56.4529 49.6995ZM45.9801 42.2504C45.9801 39.924 47.8727 38.0315 50.199 38.0315C52.5254 38.0315 54.4179 39.924 54.4179 42.2504V44.0847C54.4179 46.4111 52.5254 48.3036 50.199 48.3036C47.8727 48.3036 45.9801 46.4111 45.9801 44.0847V42.2504ZM17.2426 34.6687C17.2426 32.3424 19.1352 30.4499 21.4615 30.4499C23.7878 30.4499 25.6804 32.3424 25.6804 34.6687V36.5031C25.6804 38.8295 23.7878 40.722 21.4615 40.722C19.1352 40.722 17.2426 38.8295 17.2426 36.5031V34.6687ZM23.3858 42.5564L24.2769 42.8658L21.4615 47.7507L18.6461 42.8658L19.5372 42.5564H23.3858ZM11.4949 49.9157C11.4949 47.184 13.229 44.7465 15.8094 43.8506L16.8822 43.4783L20.6668 50.0458C20.8305 50.33 21.1337 50.5051 21.4615 50.5051C21.7893 50.5051 22.0925 50.33 22.2562 50.0458L26.0408 43.4783L27.1136 43.8506C29.694 44.7465 31.4276 47.184 31.4276 49.9157V52.584H11.4949V49.9157ZM1.83438 54.4184H38.996C38.609 55.3781 38.3985 56.4197 38.3985 57.4973V60.1656H1.83438V54.4184ZM60.1656 60.1656H40.2329V57.4973C40.2329 54.7656 41.9666 52.3286 44.5469 51.4322L48.2748 50.138H52.1233L55.8512 51.4322C58.432 52.3286 60.1656 54.7656 60.1656 57.4973V60.1656Z" fill="#2474B7"/>
<path d="M56.1913 6.60339H46.8746C46.368 6.60339 45.9574 7.01445 45.9574 7.52058C45.9574 8.02719 46.368 8.43777 46.8746 8.43777H56.1913C58.3828 8.43777 60.1656 10.2206 60.1656 12.4126V25.1303C60.1656 27.3218 58.3828 29.1046 56.1913 29.1046H43.5956C43.089 29.1046 42.6785 29.5152 42.6785 30.0218V33.9223L38.1299 29.3733C37.9577 29.2011 37.7245 29.1046 37.4814 29.1046H30.0218C27.8303 29.1046 26.047 27.3218 26.047 25.1303V12.4121C26.047 10.2206 27.8298 8.43777 30.0218 8.43777H42.5867C43.0933 8.43777 43.5039 8.02719 43.5039 7.52058C43.5039 7.01398 43.0933 6.60339 42.5867 6.60339H37.7869V5.80872C37.7869 2.60588 35.181 0 31.9782 0H5.80872C2.60588 0 0 2.60588 0 5.80872V7.83656C0 8.34317 0.410583 8.75375 0.917191 8.75375C1.4238 8.75375 1.83438 8.34317 1.83438 7.83656V5.80872C1.83438 3.6172 3.6172 1.83438 5.80872 1.83438H31.9782C34.1697 1.83438 35.9525 3.6172 35.9525 5.80872V6.60339H30.0218C26.819 6.60339 24.2131 9.20927 24.2131 12.4121V22.5007H14.6136C14.1069 22.5007 13.6964 22.9113 13.6964 23.4179V27.3185L9.14778 22.7694C8.9756 22.5972 8.7424 22.5007 8.49927 22.5007H5.80872C3.6172 22.5007 1.83438 20.7179 1.83438 18.5264V12.1013C1.83438 11.5947 1.4238 11.1841 0.917191 11.1841C0.410583 11.1841 0 11.5947 0 12.1013V18.5264C0 21.7297 2.60588 24.3351 5.80872 24.3351H8.11896L13.965 30.1812C14.1405 30.3567 14.3752 30.4499 14.6136 30.4494C14.7318 30.4494 14.851 30.4267 14.9645 30.3799C15.307 30.238 15.5307 29.9035 15.5307 29.5327V24.3351H24.2131V25.1303C24.2131 28.3331 26.819 30.9385 30.0218 30.9385H37.1015L42.9471 36.7846C43.1226 36.9601 43.3572 37.0533 43.5956 37.0533C43.7139 37.0533 43.8331 37.0306 43.9466 36.9833C44.2891 36.8414 44.5128 36.5069 44.5128 36.1361V30.9385H56.1913C59.3941 30.9385 62 28.3331 62 25.1303V12.4121C62 9.20927 59.3941 6.60339 56.1913 6.60339Z" fill="#2474B7"/>
</g>
<defs>
<clipPath id="clip0">
<rect width="62" height="62" fill="white"/>
</clipPath>
</defs>
</svg>

<svg width="62" height="62" fill="none" xmlns="http://www.w3.org/2000/svg"><g clip-path="url(#clip0)" fill="#2474B7"><path d="M56.453 49.7l-2.503-.87a6.044 6.044 0 002.302-4.745V42.25a6.06 6.06 0 00-6.053-6.053 6.06 6.06 0 00-6.053 6.053v1.835c0 1.922.901 3.636 2.302 4.746l-2.503.868a8.244 8.244 0 00-3.921 2.885h-6.761v-2.668a8.26 8.26 0 00-5.548-7.798l-2.503-.869a6.044 6.044 0 002.303-4.746V34.67a6.06 6.06 0 00-6.053-6.053 6.06 6.06 0 00-6.054 6.053v1.834c0 1.922.902 3.636 2.302 4.746l-2.502.869a8.26 8.26 0 00-5.547 7.798v2.668H.917a.917.917 0 00-.917.917v7.582c0 .506.41.917.917.917h38.154a.95.95 0 00.122-.009c.04.005.081.009.123.009h21.767c.506 0 .917-.41.917-.917v-3.586a8.26 8.26 0 00-5.547-7.797zM45.98 42.25a4.224 4.224 0 014.219-4.218 4.224 4.224 0 014.219 4.218v1.835a4.224 4.224 0 01-4.219 4.219 4.224 4.224 0 01-4.219-4.22V42.25zm-28.737-7.58a4.224 4.224 0 014.219-4.22 4.224 4.224 0 014.218 4.22v1.834a4.224 4.224 0 01-4.218 4.219 4.224 4.224 0 01-4.22-4.219V34.67zm6.143 7.887l.89.31-2.814 4.885-2.816-4.885.891-.31h3.849zm-11.891 7.36a6.425 6.425 0 014.314-6.065l1.073-.373 3.785 6.568a.917.917 0 001.59 0l3.784-6.568 1.073.373a6.425 6.425 0 014.314 6.065v2.668H11.495v-2.668zm-9.66 4.502h37.161a8.223 8.223 0 00-.598 3.08v2.668H1.834v-5.748zm58.33 5.748H40.234v-2.669a6.425 6.425 0 014.314-6.065l3.728-1.294h3.848l3.728 1.294a6.425 6.425 0 014.315 6.065v2.669z"/><path d="M56.191 6.603h-9.316a.917.917 0 000 1.835h9.316a3.979 3.979 0 013.975 3.975V25.13a3.979 3.979 0 01-3.975 3.975H43.596a.917.917 0 00-.917.917v3.9l-4.55-4.549a.917.917 0 00-.648-.268h-7.46a3.98 3.98 0 01-3.974-3.975V12.412a3.979 3.979 0 013.975-3.974h12.565a.917.917 0 100-1.835h-4.8V5.81A5.815 5.815 0 0031.978 0H5.808A5.815 5.815 0 000 5.809v2.028a.917.917 0 101.834 0V5.809A3.979 3.979 0 015.81 1.834h26.17a3.979 3.979 0 013.974 3.975v.794h-5.931a5.815 5.815 0 00-5.809 5.81V22.5h-9.6a.917.917 0 00-.917.917v3.9L9.148 22.77a.917.917 0 00-.649-.268H5.81a3.979 3.979 0 01-3.975-3.975v-6.425a.917.917 0 10-1.834 0v6.425a5.815 5.815 0 005.809 5.81h2.31l5.846 5.845a.915.915 0 001 .199.917.917 0 00.566-.847v-5.198h8.682v.795a5.815 5.815 0 005.809 5.809h7.08l5.845 5.846a.917.917 0 001.566-.649v-5.198H56.19A5.815 5.815 0 0062 25.13V12.412a5.815 5.815 0 00-5.809-5.809z"/></g><defs><clipPath id="clip0"><path fill="#fff" d="M0 0h62v62H0z"/></clipPath></defs></svg>
